X:8
T:Polska efter Niklas Larsson (EÖ8)
S:efter Niklas Larsson
B:EÖ, nr 8
O:Svarteborg, Bohuslän
R:Polska
N:EÖ:s anm: "2dra reprisen dålig antagl. origtig"
Z:Nils L
M:3/4
L:1/8
K:G
(g>f g)>b b>a | a>g (3gfg (3agf | g>f dg b>a | a>g (3gfg (3agf |
g>f d>e c>d | (3efe dB [G/2G,/2]4 :: AA/2B/2 cA/2B/2 cA/2B/2 | cA/2B/2 cA/2c/2 d2 |
AA/2B/2 cA/2B/2 cA/2c/2 | BA/2B/2 (3GAB G2 | (3GAB (3cAB (3cAB | (3cAB (3cAc d2 | 
GA/2B/2 B>G A>F | (3ABA G4 :|

